X: 100
T:Maid in the Moon (All in a Garden Green)
M:4/4
L:1/8
S:Playford
K:G
d4 d2 d2 |B3 c d2 d2 | e2 d2 c2 B2| A6 B2 |c3 d ef g2| G3 A Bc d2| c2 B2 AGAB |G6:|
|:d2 d d2 d2 | e2 f2 g4| B2 BB  B2 G2| A2 B2 c4| B3 A GA B2| c3 BA B c2 | d3 c Bc d2 |e3 d cdBc |A2 G2 G2 F2| G6:|

